svgs/regular/file-circle-info.svg

<svg xmlns="http://www.w3.org/2000/svg" viewBox="0 0 576 512"><!--! Font Awesome Pro 6.3.0 by @fontawesome - https://fontawesome.com License - https://fontawesome.com/license (Commercial License) Copyright 2023 Fonticons, Inc. --><path d="M64 464H284.5c12 18.4 27.4 34.5 45.3 47.3c-3.2 .5-6.4 .7-9.7 .7H64c-35.3 0-64-28.7-64-64V64C0 28.7 28.7 0 64 0H229.5c17 0 33.3 6.7 45.3 18.7l90.5 90.5c12 12 18.7 28.3 18.7 45.3v44.1c-17.2 4.9-33.4 12.3-48 21.8V160H256c-17.7 0-32-14.3-32-32V48H64c-8.8 0-16 7.2-16 16V448c0 8.8 7.2 16 16 16zM432 224a144 144 0 1 1 0 288 144 144 0 1 1 0-288zm0 96a24 24 0 1 0 0-48 24 24 0 1 0 0 48zm-32 48c0 8.8 7.2 16 16 16h0v48h0c-8.8 0-16 7.2-16 16s7.2 16 16 16h16 16c8.8 0 16-7.2 16-16s-7.2-16-16-16V368c0-8.8-7.2-16-16-16H416c-8.8 0-16 7.2-16 16z"/></svg>

<svg xmlns="http://www.w3.org/2000/svg" viewBox="0 0 576 512"><!--! Font Awesome Pro 6.2.0 by @fontawesome - https://fontawesome.com License - https://fontawesome.com/license (Commercial License) Copyright 2022 Fonticons, Inc. --><path d="M63.1 464H284.5C296.5 482.4 311.9 498.5 329.7 511.3C326.6 511.7 323.3 512 320 512H64C28.65 512 0 483.3 0 448V64C0 28.65 28.65 0 64 0H229.5C246.5 0 262.7 6.743 274.7 18.75L365.3 109.3C377.3 121.3 384 137.5 384 154.5V198.6C366.8 203.5 350.6 210.9 336 220.5V160H256C238.3 160 224 145.7 224 128V48H64C55.16 48 48 55.16 48 64V448C48 456.8 55.16 464 64 464H63.1zM287.1 368C287.1 288.5 352.5 224 432 224C511.5 224 576 288.5 576 368C576 447.5 511.5 512 432 512C352.5 512 287.1 447.5 287.1 368zM432 320C445.3 320 456 309.3 456 296C456 282.7 445.3 272 432 272C418.7 272 408 282.7 408 296C408 309.3 418.7 320 432 320zM416 384L416 432C407.2 432 400 439.2 400 448C400 456.8 407.2 464 416 464H448C456.8 464 464 456.8 464 448C464 439.2 456.8 432 448 432V368C448 359.2 440.8 352 432 352H416C407.2 352 400 359.2 400 368C400 376.8 407.2 384 416 384z"/></svg>
